img/instagram-ico.svg

<?xml version="1.0" ?><svg height="50px" version="1.1" viewBox="0 0 50 50" width="50px" xmlns="http://www.w3.org/2000/svg" xmlns:sketch="http://www.bohemiancoding.com/sketch/ns" xmlns:xlink="http://www.w3.org/1999/xlink"><title/><defs/><g fill="none" fill-rule="evenodd" id="Page-1" stroke="none" stroke-width="1"><g fill="#000000" id="Intsagram"><path d="M25,0 C11.1928806,0 0,11.1928806 0,25 C0,38.8071194 11.1928806,50 25,50 C38.8071194,50 50,38.8071194 50,25 C50,11.1928806 38.8071194,0 25,0 Z M25,3 C12.8497349,3 3,12.8497349 3,25 C3,37.1502651 12.8497349,47 25,47 C37.1502651,47 47,37.1502651 47,25 C47,12.8497349 37.1502651,3 25,3 Z M35.9513128,34.5096659 C35.9701595,34.4075385 35.9839804,34.3037693 36,34.2013135 L36,15.7986865 C35.9846086,15.6978726 35.9714159,15.5967304 35.9525693,15.496245 C35.7600194,14.4654483 34.9467868,13.6655054 33.9482288,13.5226585 C33.9067662,13.517076 33.8662459,13.5075528 33.8254116,13.5 L16.1745884,13.5 C16.0681049,13.5200314 15.9609932,13.5351371 15.8560802,13.5600942 C14.8813947,13.7922616 14.1601965,14.6128926 14.0213595,15.6453312 C14.0157055,15.6883495 14.0072245,15.7310394 14,15.7740577 L14,34.2269275 C14.0201031,34.3438321 14.0361227,34.4617219 14.0612516,34.5779697 C14.2767315,35.5742861 15.0902783,36.3466448 16.0580534,36.4766848 C16.1048559,36.4825957 16.1519725,36.4921188 16.198775,36.5 L33.801225,36.5 C33.9155613,36.4796402 34.0302117,36.4628926 34.1432916,36.4372787 C35.0416482,36.2379497 35.775725,35.454426 35.9513128,34.5096659 Z M16.380331,33.0989292 C16.380331,33.5885494 16.7858479,34.0095374 17.254187,34.0095374 C22.4169106,34.0098658 27.5793201,34.0098658 32.7420437,34.0095374 C33.2147803,34.0095374 33.6180985,33.5892062 33.6180985,33.0959737 C33.6184126,29.6962164 33.6180985,26.2967875 33.6180985,22.8973587 L33.6180985,22.8267561 L31.5179543,22.8267561 C31.8144748,23.81749 31.9055669,24.8252998 31.7893459,25.8524843 C31.6724968,26.8799971 31.3558732,27.8362507 30.8401034,28.7192747 C30.3240195,29.6032838 29.6549637,30.3355797 28.8357629,30.9184609 C26.7123745,32.4303398 23.9167892,32.5633352 21.6636731,31.2412621 C20.5247077,30.5736579 19.6304345,29.6426899 19.0069247,28.4431039 C18.0768429,26.653084 17.9282685,24.7744003 18.4738788,22.8251142 C17.7771813,22.825771 17.0833107,22.825771 16.3800168,22.825771 L16.3800168,22.8878355 C16.3800168,26.2915334 16.3797027,29.6952313 16.380331,33.0989292 Z M24.897757,29.6581239 C27.3886549,29.7139492 29.403361,27.6333095 29.4558175,25.1027841 C29.5095304,22.4931182 27.4960808,20.3376071 25.0001571,20.339249 C22.5601451,20.3376071 20.5765359,22.3900057 20.5422979,24.9293975 C20.5071175,27.5370931 22.5039192,29.604269 24.897757,29.6581239 Z M33.6177844,18.481582 C33.6180985,17.7555254 33.6180985,17.0291405 33.6177844,16.303084 C33.6177844,15.7822673 33.2235754,15.3678469 32.7260241,15.3675186 C32.03341,15.3671902 31.3407958,15.3668618 30.6478676,15.3675186 C30.1515727,15.3681753 29.7561073,15.7835808 29.7557932,16.3043975 C29.7554791,17.0242147 29.7535944,17.744032 29.7583061,18.4641776 C29.7589343,18.5715591 29.7784092,18.6832096 29.8110767,18.7850086 C29.9354645,19.1682324 30.2712489,19.4033552 30.6824198,19.4053255 C31.0166336,19.4059823 31.3508474,19.4049971 31.6853753,19.4049971 C32.0472308,19.4007282 32.4103428,19.4079526 32.7725125,19.3987579 C33.2383386,19.3866077 33.6177844,18.9692319 33.6177844,18.481582 Z M33.6177844,18.481582" id="Oval-1"/></g></g></svg>

<svg height="50" width="50" xmlns="http://www.w3.org/2000/svg"><path d="M25 0C11.193 0 0 11.193 0 25s11.193 25 25 25 25-11.193 25-25S38.807 0 25 0zm0 3C12.85 3 3 12.85 3 25s9.85 22 22 22 22-9.85 22-22S37.15 3 25 3zm10.951 31.51c.02-.102.033-.206.049-.309V15.8c-.015-.101-.029-.202-.047-.303-.193-1.03-1.006-1.83-2.005-1.973-.041-.006-.082-.015-.123-.023h-17.65c-.107.02-.214.035-.319.06-.975.232-1.696 1.053-1.835 2.085-.005.043-.014.086-.021.13v18.452c.02.117.036.235.061.351.216.996 1.03 1.769 1.997 1.899.047.006.094.015.14.023h17.603c.115-.02.23-.037.342-.063.899-.2 1.633-.983 1.808-1.927zm-19.57-1.411c0 .49.405.91.873.91h15.488c.473 0 .876-.42.876-.913V22.827h-2.1c.296.99.388 1.998.271 3.025a7.247 7.247 0 0 1-.949 2.867 6.994 6.994 0 0 1-2.004 2.2 6.588 6.588 0 0 1-7.172.322 6.844 6.844 0 0 1-2.657-2.798c-.93-1.79-1.079-3.669-.533-5.618H16.38V33.099zm8.517-3.44c2.49.055 4.505-2.026 4.558-4.556.054-2.61-1.96-4.765-4.456-4.764-2.44-.001-4.423 2.051-4.458 4.59-.035 2.608 1.962 4.675 4.356 4.73zm8.72-11.177v-2.179c0-.52-.394-.935-.892-.935h-2.078c-.496 0-.892.416-.892.936 0 .72-.002 1.44.002 2.16 0 .108.02.22.053.321.124.383.46.618.871.62.335.001.669 0 1.003 0 .362-.004.725.003 1.088-.006.465-.012.845-.43.845-.917zm0 0" fill="#000" fill-rule="evenodd"/></svg>
